packages/foundations/assets/icons/functional/images/business & payment/shopping_bag_24_filled.svg

<svg xmlns="http://www.w3.org/2000/svg" width="20" height="20" fill="none"><path fill="#1A1C1F" fill-rule="evenodd" d="M9.437 2.037a4.8 4.8 0 0 0-1.147.311c-.856.37-1.599 1.106-1.945 1.926-.2.474-.344 1.122-.345 1.548v.173l-.842.011c-.84.011-.842.011-1.012.101-.214.112-.425.349-.494.553-.083.242-.677 10.282-.624 10.539.071.339.361.654.697.755.127.038 1.173.046 6.275.046s6.148-.008 6.275-.046c.336-.101.626-.416.697-.755.053-.258-.54-10.297-.623-10.539-.071-.205-.282-.441-.495-.553-.17-.09-.172-.09-1.008-.101l-.836-.011-.02-.289a3.87 3.87 0 0 0-1.204-2.6c-.878-.831-2.084-1.215-3.349-1.069M10.45 4.05c.588.105 1.101.476 1.33.962.127.27.173.441.206.763l.023.225H7.991l.023-.225c.033-.328.079-.495.212-.769.36-.746 1.252-1.129 2.224-.956M8 9.343c0 .65.109 1.21.321 1.653.155.322.504.683.79.817.522.245 1.257.246 1.772.002.237-.112.565-.417.713-.661.252-.42.403-1.085.404-1.779V9h2v.468c0 .574-.045 1.01-.149 1.45-.329 1.384-1.293 2.463-2.572 2.877-.468.152-.717.188-1.279.188s-.811-.036-1.279-.188c-1.279-.414-2.243-1.493-2.572-2.877A6 6 0 0 1 6 9.468V9h2z"/></svg>

<svg width="20" height="20" viewBox="0 0 20 20" fill="none" xmlns="http://www.w3.org/2000/svg"><path d="M9.437 2.037 C 9.107 2.075,8.609 2.211,8.290 2.348 C 7.434 2.718,6.691 3.454,6.345 4.274 C 6.145 4.748,6.001 5.396,6.000 5.822 L 6.000 5.995 5.158 6.006 C 4.318 6.017,4.316 6.017,4.146 6.107 C 3.932 6.219,3.721 6.456,3.652 6.660 C 3.569 6.902,2.975 16.942,3.028 17.199 C 3.099 17.538,3.389 17.853,3.725 17.954 C 3.852 17.992,4.898 18.000,10.000 18.000 C 15.102 18.000,16.148 17.992,16.275 17.954 C 16.611 17.853,16.901 17.538,16.972 17.199 C 17.025 16.941,16.432 6.902,16.349 6.660 C 16.278 6.455,16.067 6.219,15.854 6.107 C 15.684 6.017,15.682 6.017,14.846 6.006 L 14.010 5.995 13.990 5.706 C 13.923 4.688,13.505 3.786,12.786 3.106 C 11.908 2.275,10.702 1.891,9.437 2.037 M10.450 4.050 C 11.038 4.155,11.551 4.526,11.780 5.012 C 11.907 5.282,11.953 5.453,11.986 5.775 L 12.009 6.000 10.000 6.000 L 7.991 6.000 8.014 5.775 C 8.047 5.447,8.093 5.280,8.226 5.006 C 8.586 4.260,9.478 3.877,10.450 4.050 M8.000 9.343 C 8.000 9.993,8.109 10.553,8.321 10.996 C 8.476 11.318,8.825 11.679,9.111 11.813 C 9.633 12.058,10.368 12.059,10.883 11.815 C 11.120 11.703,11.448 11.398,11.596 11.154 C 11.848 10.734,11.999 10.069,12.000 9.375 L 12.000 9.000 13.000 9.000 L 14.000 9.000 14.000 9.468 C 14.000 10.042,13.955 10.478,13.851 10.918 C 13.522 12.302,12.558 13.381,11.279 13.795 C 10.811 13.947,10.562 13.983,10.000 13.983 C 9.438 13.983,9.189 13.947,8.721 13.795 C 7.442 13.381,6.478 12.302,6.149 10.918 C 6.045 10.478,6.000 10.042,6.000 9.468 L 6.000 9.000 7.000 9.000 L 8.000 9.000 8.000 9.343 " fill="#1A1C1F" stroke="none" fill-rule="evenodd"></path></svg>
